!!!OTL: EI DU LIEBER AUGUSTIN
!!!ARE: Europa, Mitteleuropa, Deutschland
!!!SCT: F0181
!!!YEM: Copyright 1995, estate of Helmut Schaffrath.
**kern
*ICvox
*Ivox
*M3/4
*k[f#]
*G:
=1
{4.dd
8ee
8dd
8cc
=2
4b
4g
4g}
=3
{4a
4d
4d
=4
4b
4g
4g}
=5
{4.dd
8ee
8dd
8cc
=6
4b
4g
4g}
=7
{4a
4d
4d
=8
4g
2r}
=9
{4.dd
8ee
8dd
8cc
=10
4b
4g
4g}
=11
{4a
4d
4d
=12
4b
4g
4g}
=13
{4.dd
8ee
8dd
8cc
=14
4b
4g
4g}
=15
{4a
4d
4d
=16
4g
2r}
=17
{4a
4d
4d
=18
8g
8b
8dd
8b
4g}
=19
{4.a
8d
8d
8d
=20
8g
8b
8dd
8b
4g}
=21
{4.dd
8ee
8dd
8cc
=22
4b
4g
4g}
=23
{4a
4d
4d
=24
4g
2r}
=25
{4a
4d
4d
=26
8g
8b
8dd
8b
4g}
=27
{4.a
8d
8d
8d
=28
8g
8b
8dd
8b
4g}
=29
{4.dd
8ee
8dd
8cc
=30
4b
4g
4g}
=31
{4a
4d
4d
=32
4g
2r}
==
!!!AGN: Scherz - Lied, Tanz - Reim
!!!ONB: ESAC (Essen Associative Code) Database: FINK
!!!AMT: simple triple
!!!AIN: vox
!!!EED: Helmut Schaffrath
!!!EEV: 1.0
*-
